packages/kaspersky-hexa-ui-icons/src/iconsSVGs/16/Sandbox.svg

<svg width="16" height="16" viewBox="0 0 16 16" fill="none" xmlns="http://www.w3.org/2000/svg">
<path fill-rule="evenodd" clip-rule="evenodd" d="M7.75446 1.13036C7.94024 1.03571 8.15993 1.0353 8.34606 1.12927L14.6723 4.32289C14.8204 4.39763 14.9278 4.521 14.9851 4.66386C15.027 4.75119 15.0498 4.84809 15.0498 4.9481V11.2204C15.0498 11.4685 14.9099 11.6953 14.6884 11.8065L8.34725 14.9875C8.3116 15.0057 8.27465 15.0205 8.23687 15.0318C8.13228 15.063 8.02141 15.0675 7.91459 15.045C7.85875 15.0332 7.80417 15.014 7.75236 14.9875L1.41123 11.8065C1.1897 11.6953 1.0498 11.4685 1.0498 11.2204V4.9481C1.0498 4.72252 1.16563 4.5128 1.35643 4.39288C1.38551 4.3746 1.41569 4.35881 1.4467 4.34551C1.45936 4.33795 1.47235 4.33077 1.48568 4.32398L7.75446 1.13036ZM8.05268 2.44943L12.947 4.92017L10.7048 6.00394L8.04995 4.6491L5.39316 6.00316L3.17841 4.93262L8.05268 2.44943ZM8.7045 13.3419V8.42667L13.7405 5.99246V10.8156L8.7045 13.3419ZM7.39511 8.42667L2.35916 5.99246V10.8156L7.39511 13.3419V8.42667Z" fill="black"/>
</svg>

<svg xmlns="http://www.w3.org/2000/svg" width="16" height="16" fill="none" viewBox="0 0 16 16"><path fill="#000" fill-rule="evenodd" d="M7.7545 1.1304a.654.654 0 0 1 .5916-.0011l6.3262 3.1936a.653.653 0 0 1 .3128.341.66.66 0 0 1 .0647.2842v6.2723a.656.656 0 0 1-.3614.5861l-6.3411 3.181a.655.655 0 0 1-.5949 0l-6.3412-3.181a.656.656 0 0 1-.3614-.5861V4.9481a.656.656 0 0 1 .3969-.6026.7.7 0 0 1 .039-.0215zm.2982 1.319 4.8943 2.4708-2.2422 1.0837L8.05 4.6491l-2.6568 1.354-2.2148-1.0705zm.6518 10.8925V8.4267l5.036-2.4342v4.8231zM7.3951 8.4267l-5.036-2.4342v4.8231l5.036 2.5263z"/></svg>
